packages/gestalt-icons-android/vr-theme/ic_vr_visit_gestalt.svg

<svg width="24" height="24" viewBox="0 0 24 24" fill="none" xmlns="http://www.w3.org/2000/svg">
<path d="M23 1H13.0006L13.0001 3H19.5858L11.2929 11.2929L12.7071 12.7071L21 4.41421V11H23V1Z" fill="black"/>
<path d="M3 8C3 6.89543 3.89543 6 5 6H10V4H5C2.79086 4 1 5.79086 1 8V19C1 21.2091 2.79086 23 5 23H16C18.2091 23 20 21.2091 20 19V14H18V19C18 20.1046 17.1046 21 16 21H5C3.89543 21 3 20.1046 3 19V8Z" fill="black"/>
</svg>

<svg xmlns="http://www.w3.org/2000/svg" width="24" height="24"><path d="M23 1H13v2h6.59l-8.3 8.3 1.42 1.4L21 4.42V11h2zM3 8c0-1.1.9-2 2-2h5V4H5a4 4 0 0 0-4 4v11a4 4 0 0 0 4 4h11a4 4 0 0 0 4-4v-5h-2v5a2 2 0 0 1-2 2H5a2 2 0 0 1-2-2z"/></svg>
